lib/brands/icons/python.svg

<svg xmlns="http://www.w3.org/2000/svg" fill="none" aria-hidden="true" viewBox="0 0 48 48"><g id="python-Icon"><g id="Group"><path id="Vector" fill="url(#paint0_linear_94_18353)" d="M23.8845 8.08344C15.761 8.08344 16.2682 11.6063 16.2682 11.6063L16.2773 15.2559H24.0294V16.3517H13.1982C13.1982 16.3517 8 15.7622 8 23.9588C8 32.1555 12.5371 31.8648 12.5371 31.8648H15.2449V28.0613C15.2449 28.0613 15.0989 23.5241 19.7096 23.5241H27.3982C27.3982 23.5241 31.718 23.594 31.718 19.3493V12.3308C31.718 12.3308 32.3739 8.08344 23.8845 8.08344ZM19.61 10.5376C20.3812 10.5376 21.0046 11.161 21.0046 11.9323C21.0046 12.7036 20.3812 13.3269 19.61 13.3269C18.8387 13.3269 18.2153 12.7036 18.2153 11.9323C18.2153 11.161 18.8387 10.5376 19.61 10.5376Z"/><path id="Vector_2" fill="url(#paint1_linear_94_18353)" d="M24.1158 39.9165C32.2393 39.9165 31.732 36.3937 31.732 36.3937L31.723 32.7441H23.9709V31.6483H34.802C34.802 31.6483 40.0003 32.2378 40.0003 24.0411C40.0003 15.8445 35.4631 16.1351 35.4631 16.1351H32.7554V19.9387C32.7554 19.9387 32.9013 24.4758 28.2907 24.4758H20.602C20.602 24.4758 16.2823 24.406 16.2823 28.6507V35.6692C16.2823 35.6692 15.6264 39.9165 24.1158 39.9165ZM28.3903 37.4623C27.619 37.4623 26.9957 36.8389 26.9957 36.0677C26.9957 35.2964 27.619 34.673 28.3903 34.673C29.1616 34.673 29.785 35.2964 29.785 36.0677C29.785 36.8389 29.1616 37.4623 28.3903 37.4623Z"/></g></g><defs><linearGradient id="paint0_linear_94_18353" x1="11.0752" x2="26.9331" y1="10.9467" y2="26.6464" gradientUnits="userSpaceOnUse"><stop stop-color="#387EB8"/><stop offset="1" stop-color="#366994"/></linearGradient><linearGradient id="paint1_linear_94_18353" x1="20.8094" x2="37.8391" y1="21.0281" y2="37.1268" gradientUnits="userSpaceOnUse"><stop stop-color="#FFE052"/><stop offset="1" stop-color="#FFC331"/></linearGradient></defs></svg>

<svg xmlns="http://www.w3.org/2000/svg" fill="none" aria-hidden="true" viewBox="0 0 48 48"><path fill="url(#a)" d="M23.884 8.083c-8.123 0-7.616 3.523-7.616 3.523l.01 3.65h7.751v1.096H13.2S8 15.762 8 23.959c0 8.197 4.537 7.906 4.537 7.906h2.708V28.06s-.146-4.537 4.465-4.537h7.688s4.32.07 4.32-4.175V12.33s.656-4.248-7.834-4.248Zm-4.274 2.455a1.393 1.393 0 1 1 0 2.79 1.393 1.393 0 0 1-1.395-1.396c0-.771.624-1.394 1.395-1.394Z"/><path fill="url(#b)" d="M24.116 39.916c8.123 0 7.616-3.522 7.616-3.522l-.01-3.65h-7.751v-1.096H34.8s5.2.59 5.2-7.607c0-8.197-4.537-7.906-4.537-7.906h-2.708v3.804s.146 4.537-4.465 4.537h-7.688s-4.32-.07-4.32 4.175v7.018s-.656 4.248 7.834 4.248Zm4.274-2.454a1.393 1.393 0 0 1-1.395-1.394c0-.772.624-1.395 1.395-1.395a1.394 1.394 0 1 1 0 2.789Z"/><defs><linearGradient id="a" x1="11.075" x2="26.933" y1="10.947" y2="26.646" gradientUnits="userSpaceOnUse"><stop stop-color="#387EB8"/><stop offset="1" stop-color="#366994"/></linearGradient><linearGradient id="b" x1="20.809" x2="37.839" y1="21.028" y2="37.127" gradientUnits="userSpaceOnUse"><stop stop-color="#FFE052"/><stop offset="1" stop-color="#FFC331"/></linearGradient></defs></svg>
